images/icons/threads.svg

<svg fill="none" height="24" viewBox="0 0 24 24" width="24" xmlns="http://www.w3.org/2000/svg"><path d="m17.6921 11.1235c-.1033-.0495-.2084-.0972-.3147-.1429-.1853-3.41332-2.0504-5.36748-5.1822-5.38748-.0142-.00008-.0283-.00008-.0424-.00008-1.8733 0-3.43116.79957-4.39005 2.25455l1.72237 1.18151c.71628-1.08681 1.84048-1.3185 2.66848-1.3185.0095 0 .0191 0 .0286.00009 1.0312.00657 1.8093.30639 2.3129.89106.3665.42566.6116 1.01388.733 1.75625-.9142-.1554-1.903-.2032-2.96-.1426-2.97751.1715-4.89171 1.9081-4.76315 4.3211.06524 1.224.67501 2.277 1.71693 2.9649.88092.5815 2.01552.8659 3.19462.8015 1.5572-.0854 2.7789-.6795 3.6311-1.7659.6473-.825 1.0566-1.8941 1.2374-3.2413.7421.4479 1.2921 1.0373 1.5959 1.7458.5165 1.2044.5466 3.1835-1.0683 4.797-1.4148 1.4135-3.1156 2.025-5.6859 2.0439-2.85118-.0211-5.00748-.9355-6.40944-2.7178-1.31282-1.6688-1.9913-4.0794-2.01661-7.1646.02531-3.08527.70379-5.4958 2.01661-7.16466 1.40196-1.78223 3.55823-2.69659 6.40934-2.71778 2.8719.02135 5.0658.94011 6.5214 2.73094.7138.8782 1.2519 1.9826 1.6066 3.27029l2.0184-.53851c-.43-1.585-1.1066-2.95082-2.0274-4.08353-1.8661-2.29591-4.5953-3.4723565-8.1119-3.49675h-.0141c-3.5094.0243088-6.20809 1.20522-8.02106 3.50991-1.6133 2.05089-2.44549 4.90455-2.47345 8.48169l-.00009.0084.00009.0084c.02796 3.5771.86015 6.4309 2.47345 8.4817 1.81297 2.3047 4.51166 3.4856 8.02106 3.5099h.0141c3.1201-.0216 5.3193-.8385 7.131-2.6486 2.3704-2.3681 2.299-5.3365 1.5178-7.1588-.5605-1.3067-1.6291-2.3681-3.0904-3.0691zm-5.387 5.0649c-1.305.0735-2.6608-.5123-2.72765-1.7669-.04955-.9302.66205-1.9682 2.80765-2.0919.2458-.0142.4869-.0211.7238-.0211.7794 0 1.5085.0757 2.1713.2206-.2472 3.0878-1.6975 3.5892-2.9751 3.6593z" fill="#fff"/></svg>

<svg width="24" height="24" viewBox="0 0 24 24" fill="none" xmlns="http://www.w3.org/2000/svg">
<path d="M17.6921 11.1235C17.5888 11.074 17.4837 11.0263 17.3774 10.9806C17.1921 7.56728 15.327 5.61312 12.1952 5.59312C12.181 5.59304 12.1669 5.59304 12.1528 5.59304C10.2795 5.59304 8.72164 6.39261 7.76275 7.84759L9.48512 9.0291C10.2014 7.94229 11.3256 7.7106 12.1536 7.7106C12.1631 7.7106 12.1727 7.7106 12.1822 7.71069C13.2134 7.71726 13.9915 8.01708 14.4951 8.60175C14.8616 9.02741 15.1067 9.61563 15.2281 10.358C14.3139 10.2026 13.3251 10.1548 12.2681 10.2154C9.29059 10.3869 7.37639 12.1235 7.50495 14.5365C7.57019 15.7605 8.17996 16.8135 9.22188 17.5014C10.1028 18.0829 11.2374 18.3673 12.4165 18.3029C13.9737 18.2175 15.1954 17.6234 16.0476 16.537C16.6949 15.712 17.1042 14.6429 17.285 13.2957C18.0271 13.7436 18.5771 14.333 18.8809 15.0415C19.3974 16.2459 19.4275 18.225 17.8126 19.8385C16.3978 21.252 14.697 21.8635 12.1267 21.8824C9.27552 21.8613 7.11922 20.9469 5.71726 19.1646C4.40444 17.4958 3.72596 15.0852 3.70065 12C3.72596 8.91473 4.40444 6.5042 5.71726 4.83534C7.11922 3.05311 9.27549 2.13875 12.1266 2.11756C14.9985 2.13891 17.1924 3.05767 18.648 4.8485C19.3618 5.7267 19.8999 6.8311 20.2546 8.11879L22.273 7.58028C21.843 5.99528 21.1664 4.62946 20.2456 3.49675C18.3795 1.20084 15.6503 0.0243935 12.1337 0H12.1196C8.6102 0.0243088 5.91151 1.20522 4.09854 3.50991C2.48524 5.5608 1.65305 8.41446 1.62509 11.9916L1.625 12L1.62509 12.0084C1.65305 15.5855 2.48524 18.4393 4.09854 20.4901C5.91151 22.7948 8.6102 23.9757 12.1196 24H12.1337C15.2538 23.9784 17.453 23.1615 19.2647 21.3514C21.6351 18.9833 21.5637 16.0149 20.7825 14.1926C20.222 12.8859 19.1534 11.8245 17.6921 11.1235ZM12.3051 16.1884C11.0001 16.2619 9.6443 15.6761 9.57745 14.4215C9.5279 13.4913 10.2395 12.4533 12.3851 12.3296C12.6309 12.3154 12.872 12.3085 13.1089 12.3085C13.8883 12.3085 14.6174 12.3842 15.2802 12.5291C15.033 15.6169 13.5827 16.1183 12.3051 16.1884Z" fill="white"/>
</svg>
